!!!!SEGMENT: pl-wtm--1818-fp-9230_stojowski-zygmunt--danses-humoresques-op-12-no-6-cosaque-fantastique.krn
!!!cenid: 18xx:4458
!!!COM: Stojowski, Zygmunt
!!!COM-rismID: pe41019736
!!!CDT: 1870-1946
!!!CNT: Polish
!!!OTL: Danses Humoresques Op. 12/No. 6. Cosaque fantastique
!!!PDT: 1894
!!!AGN: Secular
!!!YEC: Copyright 2022 Narodowy Instytut Fryderyka Chopina (https://polishscores.org)
!!!YEM: License CC-BY-4.0 (https://creativecommons.org/licenses/by/4.0)
!!!SMS-siglum: PL-Wtm
!!!SMS-shelfmark: 1818 fp 9230
!!!SMS-variant:
!!!SMS-altvar:
!!!SMS-shelfwork: W
!!!NIFC-rismSourceID: 1001213464
!!!NIFC-rismChildID: 1001213464
!!!NIFC-islandoraID: pl-wtm:86740
!!!URL-pdf-islandora: https://repozytorium.nifc.pl/islandora/object/pl-wtm%3A86740/datastream/PDF/view
!!!URL-scan: https://polish.musicsources.pl/pl/lokalizacje/galeria/druki-muzyczne/18999/2 @EN{Scan on Polish Music Sources Website} @PL{Skany w portalu Dziedzictwo Muzyki Polskiej w otwartym dostępie}
!!!IIIF:
!!!ONB-nifc:
!!!AIN: 1 piano
!!!key: g
**kern	**kern	**dynam
*part1	*part1	*part1
*staff2	*staff1	*staff1/2
*group1	*group1	*
*ICklav	*ICklav	*
*Ipiano	*Ipiano	*
*I"PIANO.	*I"PIANO.	*
*	*I'	*
*clefF4	*clefG2	*
*kcancel	*kcancel	*
*k[b-e-]	*k[b-e-]	*
*g:	*g:	*
*M2/4	*M2/4	*
=1	=1	=1
!!LO:TX:a:B:t=Molto vivace.
!	!	!LO:DY:t=%s marc.
8DD 8GGG^\	4r<	f
4DD 4GGG\	.	.
.	(<8qd< 8qB<- 8qG</	.
.	4D<^/)	.
8C#X\	.	.
=2	=2	=2
8DD 8GGG^\	4r<	.
4DD 4GGG\	.	.
.	(<8qd< 8qB-< 8qG</	.
.	4D<^/)	.
8C#X\	.	.
=3	=3	=3
*	*^	*
4DD 4GGG'\	8rF<	8ryy	.
.	(<8qd< 8qB-< 8qG</	8qqC#X<\	.
.	4D<^/)	8ryy	.
4DD 4GGG'\	.	8ryy	.
.	(<8qd< 8qB-< 8qG</	8qqC#<\	.
.	[<8D<^/L)	8ryy	.
=4	=4	=4	=4
4DD 4GGG'\	8D</J]	8ryy	.
.	(<8qd< 8qB-< 8qG</	8qqC#X<\	.
.	4D<^/)	8ryy	.
4DD 4GGG'\	.	8ryy	.
.	(<8qd< 8qB-< 8qG</	8qqC#<\	.
.	8D<^/)	8ryy	.
*	*v	*v	*
=5	=5	=5
8DD 8GGG/	8r	.
.	(16qqd/LL	.
.	16qqe-/JJ	.
4D 4GG/	(8d/L)	.
.	8B-/)	.
8D 8GG/	8d/J	.
=6	=6	=6
8D 8GG/	8dL 8c#X'/	.
4D 4GG/	8A'/	.
.	(8d 8cn^>/	.
8D 8GG/	16B-/L	.
.	16A/JJ	.
!!LO:LB:g=original
=7	=7	=7
8D 8GG\	8B-/L)	.
.	(16qqA/LL	.
.	16qqB-/JJ	.
4D 4GG\	(>8A/)	.
.	8E-</)	.
8D 8GG\	8G<'>/J	.
=8	=8	=8
8GGL 8GGG\	4D<^/	.
8GGJ 8GGG\	.	.
!	!LO:TX:b:i:t=m.g.	!
8c#X>\	8r	.
8r	8dd 8b- 8g 8d/	.
=9	=9	=9
8GGL 8GGG\	4D<^/	.
8GGJ 8GGG\	.	.
8c#X>\	8r	.
8r	8dd 8b- 8g 8d/	.
=10	=10	=10
8D 8GG/	8r	.
.	(16qqd/LL	.
.	16qqe-/JJ	.
4D 4GG/	(8d/L)	.
.	8B-/)	.
[8E- [8D [8GG~>/	8d/J	.
=11	=11	=11
*^	*	*
8E-/L]	2D_ 2GG\_	8dL 8c#X/	<
8En~/	.	8A/	.
8F~/	.	8d 8cn/	.
8F#X~/J	.	16B-/L	.
.	.	16A/JJ	.
.	.	.	[
*v	*v	*	*
=12	=12	=12
8GL 8D] 8GG~>/]	8B-/	.
!LO:TX:b:i:t=marc.	!	!
(8D 8DD/	4d/	.
8BB- 8BBB-/)	.	.
.	.	<
8DJ 8DD'/	[8e- [8d/	.
!!LO:LB:g=original
=13	=13	=13
8C#XL 8CC#X'/	8e-]L 8d/]	.
8AA 8AAA'/	8en [8d/	.
8Cn 8CCn~^>/	8f 8d/]	.
16BB-L 16BBB-/	8f#XJ 8d/	[[
16AAJJ 16AAA/	.	.
=14	=14	=14
!LO:TX:t=P:problem:mixed beam	!	!
8GGL 8GGG/	8g 8d/	.
(8d\	(8dddL 8bb- 8gg 8dd\	ff
8B-\)	8bb- 8b-\)	.
8d\J	8dddJ 8bb- 8gg 8dd\	.
=15	=15	=15
!LO:TX:t=P:problem:mixed beam	!	!
8GGL 8DD 8GGG/	8ccc#XL 8aa 8cc#X\	.
8A\	8aa 8a\	.
8cn~\	8cccn 8aa 8ccn~\	.
(16B-\L	(16bb-L 16b-\	.
16A\JJ	16aaJJ 16a\	.
=16	=16	=16
!LO:TX:t=P:problem:mixed beam	!	!
8B-\L)	8bb-L 8b-\)	.
8GG 8DD 8GGG/	(8aa 8gg 8ee- 8a\	.
8GG 8DD 8GGG/	8ee- 8e-\)	.
8GGJ 8DD 8GGG/	8ggJ 8ee- 8cc 8g\	.
=17	=17	=17
8GGL 8DD 8GGG/	4dd 4b- 4g 4d/	.
8GGJ 8DD 8GGG/	.	.
!	!LO:TX:b:i:t=m.g.	!
8cc#X>\	8r	.
8r	8ddd 8bb- 8gg 8dd/	.
=18	=18	=18
8GGL 8DD 8GGG/	4dd 4b- 4g 4d/	.
8GGJ 8DD 8GGG/	.	.
8cc#X>\	8r	.
8r	8ddd 8bb- 8gg 8dd/	.
!!LO:LB:g=original
=19	=19	=19
16C#X^<\LL	16ryy	.
16ryy	16d<LL 16B-< 16G< 16D</	.
16C#\JJ	16ryy	.
16ryy	16d<JJ 16B-< 16G< 16D</	.
16c#X>^<\LL	16ryy	.
16ryy	16ddLL 16b- 16g 16d/	.
16c#>\JJ	16ryy	.
16ryy	16ddJJ 16b- 16g 16d/	.
=20	=20	=20
16cc#X>^<\LL	16ryy	.
16ryy	16dddLL 16bb- 16gg 16dd/	.
16cc#>\JJ	16ryy	.
16ryy	16dddJJ 16bb- 16gg 16dd/	.
16cc#>^<\LL	16ryy	.
*8va	*8va	*
16ryy	16ddddLL 16bbb- 16ggg 16ddd/	.
16ccc#>\JJ	16ryy	.
16ryy	16ddddJJ 16bbb- 16ggg 16ddd/	.
=21	=21	=21
!	!LO:TX:b:i:t=m.g.	!
(8qqfff#X>\	(8qffff#X/	.
8ggg>/)	8gggg/)	.
*X8va	*X8va	*
8r	8r	.
.	(8qff#X/	.
8GL 8GG^>/	8ggL 8g^\)	.
.	(8qff#/	.
8GJ 8GG/	8ggJ 8g\)	.
=22	=22	=22
4GG 4GGG^>/	4g 4G^>/	.
4GG 4GGG^>/	4G^>/	.
=23	=23	=23
*	*^	*
!LO:TX:t=P:problem:mixed beam	!	!	!
8FFL 8FFF^</	8r	8ryy	.
(8qBn/	.	.	.
8c 8F^\)	8ff'^/L	8b-\L	p
8c 8F\	16cc'/L	8a\	.
.	16dd'/J	.	.
8AJ 8F\	8ee-'/J	8g\J	.
!!LO:LB:g=original
=24	=24	=24	=24
8FL 8BB-/	8dd/L	8f\L	.
(>8En 8BB-^/	(16dd^/L	(8g-X\	.
.	16b-/J	.	.
8F 8BB-/)	8dd/)	8f\)	.
(>8EJ 8BB-^/	(16dd^/L	8g-\J	.
.	16b-/JJ	.	.
=25	=25	=25	=25
8F/L)	8f/L)	8ryy	.
(8qBBn/	.	.	.
!LO:S:s=1:note:problem=note-level slur	!	!	!
8C) 8FF/	8f/	8B-\L	.
8C 8FF/	16c/L	8A\	.
.	16d/J	.	.
8CJ 8FF/	8e-/J	8G\J	.
*	*v	*v	*
=26	=26	=26
*^	*	*
!	!	!LO:TX:t=P:problem:klamra	!
8F/L	8BB-L 8BBB-\	8d/L	<
8F#X/	8EEn\	16d/L	.
.	.	16B-/J	.
8G/	8BB- 8BBB-\	8d/	.
8G#X/J	8EE\J	16d/L	.
.	.	16B-/JJ	[
*v	*v	*	*
=27	=27	=27
*	*^	*
!LO:TX:t=P:problem:mixed beam	!	!	!
8AAL 8AAA^/	8A/	8ryy	.
8c#XJ 8A^>\	8aa/L	8b-\L	mf
4en 4A^\	16een/L	8bn\	.
.	16ff#X/J	.	.
.	8gg/J	8cc#XJ 8b-X\	.
=28	=28	=28	=28
8DL 8DD/	8ff#X 8dd 8a\	8ryy	<
(8GG#X/	(16f#/LL	8B-\L	.
.	16d/J	.	.
8D 8DD/)	8f#/)	8A\	.
(8GG#/J	(16f#/L	8B-\J	.
.	16d/JJ)	.	[
!!LO:PB:g=original
=29	=29	=29	=29
!LO:TX:t=P:problem:zakończenie łuku górą	!	!	!
8AAL 8AAA/)	8rdd	8A\L	.
8C#XJ 8AA/	8a/L	8B-\	.
4En 4AA/	16e-/L	8Bn\	.
.	16f#X/J	.	.
.	8g/J	8c#XJ 8B-X\	.
=30	=30	=30	=30
!	!	!	!LO:HP:t=cresc. molto
8DL 8DD/	8f#X/L	8dL 8A\	<
8F#X/J	(16f#/L	8B-\	.
.	16d/J)	.	.
4A\	8f#/	8Bn\	.
.	(16f#/L	8cn\J	.
.	16d/JJ)	.	.
*	*v	*v	*
=31	=31	=31
*^	*	*
8BB-'/L	8EE-\L	8gL 8c#X 8G/	.
8BB-'/	(16EE-\L	8b-J 8g/	.
.	16BBB-\J)	.	.
8BB-'/	8EE-\	4cc#X 4g^>/	.
8BB-'/J	(16EE-\L	.	.
.	16BBB-\JJ)	.	.
*v	*v	*	*
=32	=32	=32
*	*^	*
8DL 8DD/	8f#X/L	8A\L	.
8F#X/J	(16f#/L	8B-\	.
.	16d/J)	.	.
4A\	8f#/	8Bn\	.
.	(16f#/L	8cn\J	.
.	16d/JJ)	.	.
*	*v	*v	*
=33	=33	=33
*^	*	*
8BB-/L	8EE-\L	8gL 8c#X 8G/	.
8BB-/	16EE-\L	8b-J 8g/	.
.	16BBB-\J	.	<
8BB-/	8EE-\	[4cc#X [4g^>/	.
8BB-/J	16EE-\L	.	.
.	16BBB-\JJ	.	.
!!LO:LB:g=original
=34	=34	=34	=34
8BB-/L	8EE-\L	8cc#]L 8g/]	.
8BB-/	16EE-\L	8b-J 8g/	.
.	16BBB-\J	.	.
8BB-/	8EE-\	[4cc#X [4g^>/	.
8BB-/J	16EE-\L	.	[[
.	16BBB-\JJ	.	.
*v	*v	*	*
=35	=35	=35
8BB- 8EE-/	8cc#]L 8g/]	.
8r	8b-/J	.
8r	[4ddd-X^\	.
16gLL 16B-\	.	.
16d-X\JJ	.	.
=36	=36	=36
4EE-^>/	8ddd-\L]	.
.	8bb-\J	.
*	*8va	*
8r	[4dddd-X^\	.
16gLL 16B-\	.	.
16d-X\JJ	.	.
=37	=37	=37
4EEE-^>/	8dddd-\L]	.
.	8bb-\J	.
8r	[4dddd-X^\	.
16gLL 16B-\	.	.
16d-X\JJ	.	.
=38	=38	=38
4EEEn^>/	8dddd-\L]	.
.	8bb-\J	.
8r	[4dddd-X\	.
16gLL 16B-\	.	.
16d-X\JJ	.	.
=39	=39	=39
*8va	*	*
!	!LO:TX:b:i:t=m.g.	!
(16bbb->^\LL	(16dddd-^/LL]	ff
16aaa>\	16cccc/	.
16ggg>\	16dddd-X/	.
16fff#X>\JJ	16aaa/JJ	.
16eeen>\LL	16bbb-/LL	.
16dddn>\	16fff#y/	.
16ddd-X>\	16ggg/	.
16ccc>\JJ	16eee-X/JJ	.
!!LO:LB:g=original
=40	=40	=40
16bb->\LL	16eeen/LL	>
16aa>\	16ccc/	.
16gg>\	16ddd-X/	.
16ff#X>\JJ	16aa/JJ	.
*X8va	*X8va	*
16een>\LL	16bb-/LL	.
16ddn>\	16ff#X/	.
16dd-X>\	16gg/	.
16cc>\JJ	16ee-/JJ	]
=41	=41	=41
16b->\LL	16een/LL	<
16a>\	16cc/	.
16g>\	16dd-X/	.
16f#X>\JJ	16a/JJ	.
16en>\LL	16b-/LL	.
16d>\	16f#y/	.
16d-X>\	16g/	[
16c>\JJ	16e-X/JJ	.
=42	=42	=42
!	!	!LO:HP:b=2
16B-\LL	16en/LL	>
16A\	16c/	.
16G\	16c#X/	.
16F#X\JJ	16A</JJ	.
16En\LL	16B-</LL	.
16Dn\	16F#y</	.
16C#X\	16G</	]
16D\JJ)	16F#</JJ)	.
=43	=43	=43
8D 8GG^/	8r	.
.	(16qqd/LL	.
.	16qqe-/JJ	.
4D 4GG/	(8d/L)	p
.	8B-/)	.
8D 8GG/	8d/J	.
!!LO:LB:g=original
=44	=44	=44
8D 8GG/	8dL 8c#X/	.
4D 4GG/	8A/	.
.	(8d 8cn~/	.
8D 8GG/	16B-/L	.
.	16A/JJ)	.
=45	=45	=45
8D 8GG\	8B-</L	<
.	(<16qqA</LL	.
.	16qqB-</JJ	.
4D 4GG\	(8A</)	.
.	8E-</)	.
8D 8GG\	8G<^/J	.
.	.	[
=46	=46	=46
8GGL 8GGG\	4D<^/	f
8GGJ 8GGG\	.	.
!	!LO:TX:b:i:t=m.g.	!
8c#X>\	8r	.
8r	8dd 8b- 8g 8d/	.
=47	=47	=47
8GGL 8GGG\	4D<^/	.
8GGJ 8GGG\	.	.
8c#X>\	8r	.
8r	8dd 8b- 8g 8d/	.
=48	=48	=48
*^	*	*
8D 8GG/	8ryy	8r	sf
.	.	(16qqd/LL	.
.	.	16qqe-/JJ	.
4ryy	[<4.D [4.GG\	(8d/L)	p
.	.	8B-/)	<
[8E-~/	.	8d/J	.
=49	=49	=49	=49
8E-/L]	2D_ 2GG\_	8dL 8c#X/	.
8En~</	.	8A/	.
8F~</	.	(8d 8cn/	.
8F#X~</J	.	16B-/L	.
.	.	16A/JJ	.
*v	*v	*	*
!!LO:LB:g=original
=50	=50	=50
8G 8D] 8GG/]	8B-/)	.
8DL 8DD/	4d/	<
8BB- 8BBB-/	.	.
8DJ 8DD/	[8e- [8d/	.
=51	=51	=51
8C#XL 8CC#X/	8e-]L 8d/]	.
8AA 8AAA/	8en 8d/	.
8Cn 8CCn/	8f 8d/	.
16BB-L 16BBB-/	8f#XJ 8d/	[[
16AAJJ 16AAA/	.	.
=52	=52	=52
*	*^	*
8BB- 8BBB-/	8g 8e-/	8ryy	ff
(>8qBn/	.	.	.
8cL 8B-X\)	8bb-/L	8ee-\L	p
8c 8B-\	16ff/L	8dd\	.
.	16gg/J	.	.
8dJ 8B-\	8aa-X/J	8cc\J	.
=53	=53	=53	=53
8e- 8B- 8E-\	8gg 8b-\	8ryy	.
8AAnL [8EE-^>/	(16g^/LL	8c-X\L	.
.	16e-/J	.	.
8BB- 8EE-/]	8g/)	8B-\	.
(8AAJ 8EE-^>/	(16g^/L	8c-\J	.
.	16e-/JJ	.	.
=54	=54	=54	=54
8BB-L 8BBB-/)	8B-/)	8ryy	<
(8qEn/	.	.	.
!LO:S:s=1:note:problem=note-level slur	!	!	!
8F) 8BB-/	8b-/L	8e-\L	.
8F 8BB-/	16f/L	8d\	.
.	16g/J	.	.
8DJ 8BB-/	8a-X/J	8cn\J	.
=55	=55	=55	=55
8E-L 8EE-/	8g/L	8B-\L	.
8G/J	(16g/L	8Bn\	.
.	16e-/J	.	.
4B- 4E-\	8g/)	8c\	.
.	(16g/L	8c#X\J	.
.	16e-/JJ)	.	.
!!LO:LB:g=original
=56	=56	=56	=56
8DL 8DD/	8rdd	8d\L	.
8F#XJ 8D/	8dd/L	8e-\	.
4A 4D\	16an/L	8en\	<
.	16bn/J	.	.
.	8cc/J	8f#XJ 8e-X\	.
*	*v	*v	*
=57	=57	=57
8DL 8GG/	8bnL 8g 8d/	.
8E-X 8C#X/	(>16bL 16Bn/	.
.	16g/J	.
8D 8GG/	8b 8B/)	.
8E-J 8C#/	(>16bL 16B/	.
.	16g/JJ)	[
=58	=58	=58
!!LO:TX:a:i:t=slargando
8DL 8DD\	8rdd	ff
8f#X>J 8F#X\	8ddd 8aa 8dd/	.
4a> 4A\	16r	.
.	16bbnKL 16bn/	<
.	8cccJ 8ff#X 8cc/	.
=59	=59	=59
!!LO:TX:a:i:t=a tempo
8GG 8GGG/	8bbnL 8gg 8bn\	.
8e-:L 8C#X:\	(16bbL 16b\	.
.	16gg\J	.
8d 8D\	8bb 8b\)	.
8e-:J 8C#:\	(16bbL 16b\	[
.	16gg\JJ	.
=60	=60	=60
8d 8D\	8bbn 8bn\)	.
8E-L 8C#X/	(16bLL 16Bn/	.
.	16g/J)	.
8D 8GG/	8b 8B/	.
8E-J 8C#/	(16bL 16B/	.
.	16g/JJ)	>
=61	=61	=61
8DL 8GG/	8bnL 8Bn/	.
8E- 8C#X/	(16bL 16B/	.
.	16g/J)	.
8D 8GG/	8b 8B/	.
8E-J 8D-X/	(16bL 16B/	.
.	16g/JJ)	]]
=62	=62	=62
!	!LO:TX:b:B:t=1	!
2r	2r	.
*	*clefF4	*
!!LO:PB:g=original
=63	=63	=63
8GG/L	8e-L 8E-\	sf
8EE-/	16e-L 16E-\	>
.	16Bn\J	.
8GG/	8e- 8E-\	.
8EE-/J	16e-L 16E-\	.
.	16B\JJ	]
=64	=64	=64
!	!LO:TX:b:B:t=1	!
2r	2r	.
*	*clefG2	*
=65||	=65||	=65||
*k[b-e-a-d-]	*k[b-e-a-d-]	*
*	*	*^
*ped	*	*	*
!LO:TX:t=P:problem:mixed beam	!	!LO:DY:b	!LO:DY:a=2
8AAA-/L	2r	f	sf
(16e-L 16E-\	.	.	.
16c\J	.	.	.
8e- 8E-'\)	.	.	.
(16e-L 16E-\	.	.	.
16c\JJ	.	.	.
*	*	*v	*v
=66	=66	=66
8e-L 8E-'\)	2r	.
(16e-L 16E-\	.	.
16c\J	.	.
8e- 8E-'\)	.	.
(16e-L 16E-\	.	.
16c\JJ)	.	.
=67	=67	=67
!	!LO:TX:b:i:t=con calore rubato	!
!	!LO:TX:a:i:t=sonore	!
8r	(2ee-\	.
(16e-LL [[<16E-\	.	.
16c\J	.	.
8e- 8E-'\]])	.	.
(16e-L 16E-\	.	.
16c\JJ)	.	.
=68	=68	=68
8r	4cc\	.
(16e-LL 16E-\	.	.
!LO:TX:t=P:problem:pojedyncza belka	!	!
16c\)J	.	.
8rD	4a-/	.
(16e- 16E-\L	.	.
*Xped	*	*
16c\JJ)	.	.
!!LO:LB:g=original
=69	=69	=69
8r	[2f/	.
*ped	*	*
(16e-LL [[16E-\	.	.
16d-\J	.	.
8e-) 8E-'\]]	.	.
(16e-L [[16E-\	.	.
16d-\JJ	.	.
=70	=70	=70
8e-)L 8E-'\]]	4f/]	.
(16e-L 16E-\	.	.
!LO:TX:t=P:problem:t. 70-78 - pojedyncza belka	!	!
16d-\)J	.	.
8rD	4g/	.
(16e- 16E-\L	.	.
16d-\JJ)	.	.
=71	=71	=71
!LO:TX:t=P:problem:mixed beam	!	!
8AAA-/L	4a-/)	.
16e-L 16E-\	.	.
16c\J	.	.
8rD	([4f/	.
(16e- [[16E-\L	.	.
16d-\JJ	.	.
=72	=72	=72
8e-)L 8E-'\]]	4f/]	.
16e-L 16E-\	.	.
16d-\J	.	.
8rD	4g/	.
16e- 16E-\L	.	.
16d-\JJ	.	.
=73	=73	=73
8AA-\L	4a-/)	.
16e-L 16E-\	.	.
16c\J	.	.
8rD	([4f/	.
16e- 16E-\L	.	.
16d-\JJ	.	.
=74	=74	=74
8e-L 8E-\	4f/]	.
16e-L 16E-\	.	.
16d-\J	.	.
8rD	4g/	.
16e- 16E-\L	.	.
16d-\JJ	.	.
!!LO:LB:g=original
=75	=75	=75
8AA-\L	4a-/	.
16e-L 16E-\	.	.
16c\J	.	.
!	!LO:TX:b:i:t=rall. e dim. poco a poco	!LO:HP:a
8rD	[4an/	>
16e- 16E-\L	.	.
16d-\JJ	.	.
=76	=76	=76
8e-L 8E-\	4a/]	.
16e-L 16E-\	.	.
16d-\J	.	.
8rD	4b-\	]
16e- 16E-\L	.	.
16d-\JJ	.	.
=77	=77	=77
8AA-\L	4cc\	.
16e-L 16E-\	.	.
16c\J	.	.
8rD	[4g/	.
16e- 16E-\L	.	.
16c\JJ	.	.
=78	=78	=78
8e-L 8E-\	4g/]	.
16e-L 16E-\	.	.
16c\J	.	.
8rD	12a-/L	.
.	12g/	.
16e- 16E-\L	.	.
.	12a-/J	.
16c\JJ	.	.
=79	=79	=79
8r	4an/	.
16e-LL [[16E-\	.	.
16d-\J	.	.
8e- 8E-\]]	[4b-\	.
16e-L [[16E-\	.	.
16d-\JJ	.	.
=80	=80	=80
8e-L 8E-\]]	4b-\]	.
16e-L 16E-\	.	.
!LO:TX:t=P:problem:pojedyncza belka	!	!
16d-\J	.	.
8rD	4bn\	.
16e- 16E-\L	.	.
16d-\JJ	.	.
!!LO:LB:g=original
=81	=81	=81
8AA-\L	2cc\	.
16e-L 16E-\	.	.
16c\J	.	.
8e- 8E-\	.	.
16e-L 16E-\	.	.
16c\JJ	.	.
=82	=82	=82
!	!LO:TX:b:i:t=rit. assai	!
8r	4dd-\	.
16e-LL 16E-\	.	.
16Bn\JJ	.	.
!	!LO:TUP:a	!
4r	12ddn\L	.
.	12ee-\	.
.	12dd\J)	.
=83	=83	=83
*	*^	*
*	*Xbrackettup	*	*
!LO:TX:t=P:problem:mixed beam	!LO:TX:b:i:t=dolce cantato	!	!
8AAA-/L	(24ee-/LL	2ee-^>\	.
.	24ff/	.	.
!	!LO:TX:t=P:problem:pojedyncza belka	!	!
.	24ee-/J	.	.
16e-L 16E-\	32ff/L	.	.
.	32ee-/	.	.
!LO:TX:t=P:problem:pojedyncza belka	!	!	!
16c\J	32ff/	.	.
.	32ee-/JJJ	.	.
.	(<8qff/	.	.
8rD	4ee-T/)	.	.
16e- 16E-\L	.	.	.
16c\JJ	.	.	.
.	8qee-/)	.	.
=84	=84	=84	=84
!	!LO:TX:b:i:t=ritornando-al-tempo:dur=7q:ext=ud:problem:text with extention lines	!	!
8r	32r	4cc\	.
.	(32ee-/LLL	.	.
.	32ff/	.	.
.	32ee-/	.	.
16e-LL 16E-\	32ff/	.	.
.	32ee-/	.	.
!LO:TX:t=P:problem:pojedyncza belka	!	!	!
16c\J	32ff/	.	.
.	32ee-/JJJ)	.	.
8rD	32r	4a-\	.
.	(32ee-/LLL	.	.
.	32ff/	.	.
.	32ee-/	.	.
16e- 16E-\L	32ff/	.	.
.	32ee-/	.	.
16c\JJ	32ff/	.	.
.	32ee-/JJJ)	.	.
=85	=85	=85	=85
8r	16rff	[2f\	.
.	(32ee-/LLL	.	.
.	32ff/JJJ	.	.
[[16e-LL [[16E-\	4.ee-TT/	.	.
16d-\J	.	.	.
8e-]] 8E-\]]	.	.	.
[[16e-L [[16E-\	.	.	.
16d-\JJ	.	.	.
!!LO:LB:g=original
=86	=86	=86	=86
8e-]]L 8E-\]]	4ee-T/	4f\]	.
16e-L 16E-\	.	.	.
!LO:TX:t=P:problem:t. 86-96 - pojedyncza belka	!	!	!
16d-\J	.	.	.
.	8qee-/)	.	.
8rD	8rff	4g\	.
!	!LO:TUP:a:problem:klamra łukowa	!	!
16e- 16E-\L	24ee-/LL	.	.
.	24ff/	.	.
16d-\JJ	.	.	.
.	24ee-/JJ	.	.
=87	=87	=87	=87
8AA-\L	8rff	4a-\	.
!	!LO:TUP:a:problem:klamra łukowa	!	!
16e-L 16E-\	24ee-/LL	.	.
.	24ff/	.	.
16c\J	.	.	.
.	24ee-/JJ	.	.
8rD	8rff	[4f\	.
[[16e- [[16E-\L	(32ee-/LLL	.	.
.	32ff/	.	.
16d-\JJ	32ee-/	.	.
.	32ff/JJJ	.	.
=88	=88	=88	=88
!	!	!	!LO:HP:t=poco cresc.
8e-]]L 8E-\]]	4ee-T/	4f\]	<
16e-L 16E-\	.	.	.
16d-\J	.	.	.
.	8qee-/)	.	.
8rD	8rff	4g\	.
!	!LO:TUP:a:problem:klamra łukowa	!	!
16e- 16E-\L	24ee-/LL	.	.
.	24ff/	.	.
16d-\JJ	.	.	.
.	24ee-/JJ	.	.
=89	=89	=89	=89
8AA-\L	8rff	4a-\	.
!	!LO:TUP:a:problem:klamra łukowa	!	!
16e-L 16E-\	24ee-/LL	.	.
.	24ff/	.	.
16c\J	.	.	.
.	24ee-/JJ	.	.
8rD	8rff	[4f\	.
[[16e- [[16E-\L	(32ee-/LLL	.	.
.	32ff/	.	.
16d-\JJ	32ee-/	.	.
.	32ff/JJJ	.	.
=90	=90	=90	=90
8e-]]L 8E-\]]	4ee-T/	4f\]	.
16e-L 16E-\	.	.	.
16d-\J	.	.	.
.	8qee-/)	.	.
8rD	8rff	4g\	.
!	!LO:TUP:a:problem:klamra łukowa	!	!
16e- 16E-\L	24ee-/LL	.	.
.	24ff/	.	.
16d-\JJ	.	.	.
.	24ee-/JJ	.	.
!!LO:LB:g=original
=91	=91	=91	=91
8AA-\L	8rff	4a-\	.
!	!LO:TUP:a:problem:klamra łukowa	!	!
16e-L 16E-\	24ee-/LL	.	.
.	24ff/	.	.
16c\J	.	.	.
.	24ee-/JJ	.	.
8rD	8rff	[4an\	.
[[16e- [[16E-\L	(32ee-/LLL	.	.
.	32ff/	.	.
16d-\JJ	32ee-/	.	.
.	32ff/JJJ	.	.
=92	=92	=92	=92
8e-]]L 8E-\]]	4ee-T/	4a\]	.
16e-L 16E-\	.	.	.
16d-\J	.	.	.
.	8qee-/)	.	.
8rD	8rff	4b-\	.
!	!LO:TUP:a:problem:klamra łukowa	!	!
16e- 16E-\L	24ee-/LL	.	.
.	24ff/	.	.
16d-\JJ	.	.	.
.	24ee-/JJ	.	.
=93	=93	=93	=93
!	!LO:TX:b:i:t=calando	!	!
8AA-\L	8rff	4cc\	.
!	!LO:TUP:a:problem:klamra łukowa	!	!
16e-L 16E-\	24ee-/LL	.	.
.	24ff/	.	.
16c\J	.	.	.
.	24ee-/JJ	.	.
8rD	8rff	[4g\	.
[[16e- [[16E-\L	(32ee-/LLL	.	.
.	32ff/	.	.
16c\JJ	32ee-/	.	.
.	32ff/JJJ	.	.
=94	=94	=94	=94
8e-]]L 8E-\]]	4ee-T/	4g\]	.
16e-L 16E-\	.	.	.
16c\J	.	.	.
.	8qee-/)	.	.
8rD	8rff	4a-\	.
!	!LO:TUP:a:problem:klamra łukowa	!	!
16e- 16E-\L	24ee-/LL	.	.
.	24ff/	.	.
16c\JJ	.	.	.
.	24ee-/JJ	.	.
=95	=95	=95	=95
8r	16r	4an\	.
.	(32ee-/LLL	.	.
.	32ff/JJJ	.	.
16e-LL 16E-\	4.ee-T/	.	.
16d-\J	.	.	.
8rD	.	[4b-^\	.
16e- 16E-\L	.	.	.
16d-\JJ	.	.	.
!!LO:PB:g=original
=96	=96	=96	=96
8e-L 8E-\	4ee-T/	4b-\]	.
16e-L 16E-\	.	.	.
16d-\J	.	.	.
.	8qee-/)	.	.
!	!LO:TUP:a:problem:klamra łukowa	!	!
8rD	24r	4bn\	.
.	24ee-/LL	.	.
.	24ff/	.	.
16e- 16E-\L	24ee-/	.	.
.	24ff/	.	.
16d-\JJ	.	.	.
.	24ee-/JJ	.	.
=97	=97	=97	=97
8AA-\L	16r	2cc\	.
.	(32ee-/LLL	.	>
.	32ff/JJJ	.	.
16e-L 16E-\	4.ee-T\	.	.
16c\JJ	.	.	.
4r	.	.	.
.	.	.	]
*	*v	*v	*
=98	=98	=98
8r	4dd-^<T\	.
!LO:TX:a:i:t=rit.	!	!
16e-LL 16E-\	.	.
16Bn\JJ	.	.
4r	4ddn^<t\	.
=99	=99	=99
!	!LO:TX:b:i:t=a tempo	!
!	!LO:TUP:a	!
2r	28ddn\LLL	.
.	28ee-\	.
.	28dd\	.
.	28ee-\	.
.	28dd\	.
.	28ee-\	.
.	28gg\JJJ	.
!	!LO:TUP:a	!
.	28ff^\LLL	.
.	28gg\	.
.	28ff\	.
.	28gg\	.
.	28ff\	.
.	28gg\	.
.	28bb-\JJJ	.
!!LO:LB:g=original
=100	=100	=100
2r	32aa-^\LLL	<
.	32gg\	.
.	32aa-\	.
.	32gg\	.
.	32aa-\	.
.	32gg\	.
.	32aa-\	.
.	32eee-\JJJ	.
*	*8va	*
!	!LO:TUP:a	!
.	28dddn^\LLL	.
.	28eee-\	.
.	28ddd\	.
.	28eee-\	.
.	28ddd\	.
.	28eee-\	.
.	28ggg\JJJ	.
=101	=101	=101
!	!LO:TUP:a	!
2r	28fff^\LLL	.
.	28ggg\	.
.	28fff\	.
.	28ggg\	.
.	28fff\	.
.	28ggg\	.
.	28bbb-\JJJ	.
.	32aaa-^\LLL	.
.	32ggg\	.
.	32aaa-\	.
.	32ggg\	.
.	32aaa-\	.
.	32ggg\	.
.	32aaa-\	.
.	32eeee-\JJJ)	[[
=102	=102	=102
*^	*	*
8ryy	2rF	(>32ddddn^>/LLL	.
.	.	32cccc-X/	.
.	.	32aaa-/	.
.	.	32fff/JJJ	.
*8va	*	*	*
!LO:SIC:v:s=32ddd>\LLL	!	!LO:TX:b:i:t=m.g.	!
32ddd->\LLL	.	8ryy	.
32ccc-X>\	.	.	.
32aa->\	.	.	.
32ff>\JJJ	.	.	.
*X8va	*	*X8va	*
!	!	!LO:TX:t=P:problem:10 zamiast 11	!
!	!	!LO:TUP:r=4:num=10	!
4ryy	.	44ddn/LLL	.
.	.	44cc-X/	.
.	.	44a-/	.
.	.	44f/	.
.	.	44a-/	.
.	.	44cc-/	.
.	.	44dd/	.
.	.	44ff/	.
.	.	44aa-/	.
.	.	44ccc-/	.
.	.	44dddny/JJJ)	.
*v	*v	*	*
!!LO:LB:g=original
=103	=103	=103
*	*tremolo	*
2r	(32dddn\LLL	sf >
.	32eee-\	.
.	32ddd\	.
.	32eee-\	.
.	32ddd\	.
.	32eee-\	.
.	32ddd\	.
.	32eee-\	] p
.	32ddd\	.
.	32eee-\	.
.	32ddd\	.
.	32eee-\	.
.	32ddd\	.
.	32eee-\	.
.	32ddd\	.
.	32eee-\JJJ	.
=104	=104	=104
2r	32dddn\LLL	>
.	32eee-\	.
.	32ddd\	.
.	32eee-\	.
.	32ddd\	.
.	32eee-\	.
.	32ddd\	.
.	32eee-\	.
.	32ddd\	.
.	32eee-\	.
.	32ddd\	.
.	32eee-\	.
.	32ddd\	.
.	32eee-\	.
.	32ddd\	.
.	32eee-\JJJ	.
=105	=105	=105
2r	32dddn\LLL	.
.	32eee-\	.
.	32ddd\	.
.	32eee-\	.
.	32ddd\	.
.	32eee-\	.
.	32ddd\	.
.	32eee-\	.
.	32ddd\	.
.	32eee-\	]
.	32ddd\	.
.	32eee-\	.
.	32ddd\	.
.	32eee-\	.
.	32ddd\	.
.	32eee-\JJJ	.
=106	=106	=106
2r	32dddn\LLL	pp
.	32eee-\	.
.	32ddd\	.
.	32eee-\	.
.	32ddd\	.
.	32eee-\	.
.	32ddd\	.
.	32eee-\	.
.	32ddd\	.
.	32eee-\	.
.	32ddd\	.
.	32eee-\	.
.	32ddd\	.
.	32eee-\	.
.	32ddd\	.
.	32eee-\JJJ)	.
*	*Xtremolo	*
=107	=107	=107
*	*^	*
*ped	*	*	*
*8ba	*	*	*
!LO:TX:t=P:problem:mixed beam	!	!	!LO:DY:a=2
8CCC-X/L	2r	8ryy	sf
*X8ba	*	*	*
!	!	!	!LO:DY:b=2
16e-L 16E-\	.	8ryy	pp
16c-X\J	.	.	.
8e- 8E-\	.	4ryy	.
16e-L 16E-\	.	.	.
16c-\JJ	.	.	.
*	*v	*v	*
=108	=108	=108
8e-L 8E-\	2r	.
16e-L 16E-\	.	.
16c-X\J	.	.
8e- 8E-\	.	.
16e-L 16E-\	.	.
16c-\JJ	.	.
=109	=109	=109
!!LO:TX:a:i:t=rit.
!	!LO:TX:b:i:t=molto espress.	!
8r	(2eee-: 2ee-:\	.
16e-LL 16E-\	.	.
16c-X\J	.	.
8e- 8E-\	.	.
16e-L 16E-\	.	.
16c-\JJ	.	.
*Xped	*	*
=110	=110	=110
8r	4ccc-X 4cc-X\	>
16dnLL 16E-\	.	.
!LO:TX:t=P:problem:pojedyncza belka	!	!
16c-X\J	.	.
8rD	4aa- 4a-\	.
16d 16E-\L	.	]]
16c-\JJ	.	.
!!LO:LB:g=original
=111	=111	=111
!!LO:TX:a:i:t=a tempo
8r	[2ff [2f\	p
[[16e-LL [[16E-\	.	.
16d-X\J	.	.
8e-]] 8E-\]]	.	.
16e-L 16E-\	.	.
16d-\JJ	.	.
=112	=112	=112
8e-L 8E-\	4ff] 4f\]	.
16e-L 16E-\	.	.
!LO:TX:t=P:problem:pojedyncza belka	!	!
16d-\J	.	.
8rD	4gg 4g\	.
16e- 16E-\L	.	.
16d-\JJ	.	.
=113	=113	=113
8AA-\L	8aa- 8ee- 8a-\)	.
!	!	!LO:HP:t=poco cresc.
.	.	<
16e-L 16E-\	8r	.
!LO:TX:t=P:problem:pojedyncza belka	!	!
16c\J	.	.
8rD	([4ff [<4ee- [4f\	.
16e- 16E-\L	.	.
16d-\JJ	.	.
=114	=114	=114
!	!LO:TX:b:i:t=ed incalzando.	!
8e-L 8E-\	4ff] 4ee-] 4f\]	.
[[16e-L [[16E-\	.	.
16d-\J	.	.
8e-]] 8E-\]]	4gg 4ee- 4g\	.
16e-L 16E-\	.	.
16d-\JJ	.	.
=115	=115	=115
8AA-\L	4aa- 4ee- 4a-\)	.
16e-L 16E-\	.	.
!LO:TX:t=P:problem:pojedyncza belka	!	!
16c\J	.	.
8rD	([4ff 4ee- [4f\	.
16e- [[16E-\L	.	.
16d-\JJ	.	.
=116	=116	=116
8e-L 8E-\]]	4ff] 4f\]	.
!	!LO:TX:b:i:t=rall.	!
.	.	.
16e-L [[16E-\	.	.
16d-\J	.	.
8e- 8E-\]]	4gg 4ee- 4g\	.
16e-L 16E-\	.	.
16d-\JJ	.	.
!!LO:LB:g=original
=117	=117	=117
!	!	!LO:HP:t=e dim.
8AA-\L	8aa- 8a-\)	>
16e-L 16E-\	8r	.
!LO:TX:t=P:problem:pojedyncza belka	!	!
16c\J	.	.
8rD	[4aan [4an\	.
16e- [[16E-\L	.	.
16d-\JJ	.	.
=118	=118	=118
8e-L 8E-\]]	4aa] 4a\]	.
[[16e-L [[16E-\	.	.
[<16d-\J	.	.
8e-]]J 8d-] 8E-;\]]	8bb- 8b-;\	.
8r	8r	.
=119	=119	=119
!!LO:TX:a:B:t=Tempo I.
!	!	!LO:DY:rj
8GGL 8CC'<^<\	8e-L 8E-<'>/	mf
8AA-X 8FF#X'<\	(>16e-L 16E-</	>
.	16c/J)	.
8GG 8CC'<\	8e- 8E-<'>/	.
8AA-J 8FF#'<\	(>16e-L 16E-</	.
.	16c/JJ)	.
=120	=120	=120
8GGL 8CC'<\	8e-L 8E-<'>/	.
8AA- 8FF#X'<\	(>16e-L 16E-</	.
.	16c/J)	.
8GG 8CC'<\	8e- 8E-<'>/	.
16AA-Jk 16FF#'<\	(>16e-L 16E-</	.
16r;<	32c/JJk)	]
.	32r;	.
=121	=121	=121
*^	*	*
!!LO:TX:a:i:t=meno mosso.
!	!	!	!LO:DY:t=%s cantabile
8A-/	[2E- [2AA-\	8r	mf
8rB	.	(16ee-LL 16e-/	.
.	.	16cc/)	.
([4Fn/	.	8r	.
.	.	(16ee- 16e-/	.
.	.	16dd-/JJ)	.
!!LO:LB:g=original
=122	=122	=122	=122
4F/]	2E-] 2AA-\]	8r	.
.	.	(16ee-LL 16e-\	.
!	!	!LO:TX:t=P:problem:t. 122-124 - pojedyncza belka	!
.	.	16dd-\)J	.
4G/	.	8rb	.
!	!	!	!LO:HP:a=2
.	.	(16eee- 16ee-\L	>
.	.	16ddd-\JJ)	]]
=123	=123	=123	=123
!	!	!LO:TX:b:i:t=poco a poco dim. e rall.-:dur=6q:ext=ud:problem:text with extention lines	!
4A-/)	[2E- [2AA-\	8r	.
.	.	(16ee-LL 16e-/	.
.	.	16cc/)J	.
([4F/	.	8r	.
.	.	(16ee- 16e-/L	.
.	.	16dd-/JJ)	.
=124	=124	=124	=124
4F/]	2E-] 2AA-\]	8r	.
.	.	(16ee-LL 16e-\	.
.	.	16dd-\)J	.
4G/	.	8rb	.
.	.	(16eee- 16ee-\L	.
.	.	16ddd-\JJ)	.
=125	=125	=125	=125
4A-/)	[2E- [2AA-\	8r	.
.	.	(16ee-LL 16e-/	.
!	!	!LO:TX:t=P:problem:pojedyncza belka	!
.	.	16cc/J)	.
([4F/	.	8r	.
.	.	(16ee-L 16e-/	.
.	.	16cc/JJ)	.
=126	=126	=126	=126
4F/]	2E-_ 2AA-\_	8r	.
.	.	(16ee-LL 16e-/	.
.	.	16cc/JJ)	.
[4F#X/)	.	4r	.
=127	=127	=127	=127
4F#;/]	4E-] 4AA-;\]	8r	.
.	.	(16ee-LL 16e-/	pp
.	.	16cc/JJ)	.
4r	4ryy	4r	.
*v	*v	*	*
!!LO:PB:g=original
=128	=128	=128
!!LO:TX:a:B:t=Tempo I.
!	!	!LO:DY:rj
8GGL 8CC'<\	8e-L 8E-<'>/	pp
8AA-X 8FF#X'<\	(>16e-L 16E-</	.
.	16c/J)	.
8GG 8CC'<\	8e- 8E-<'>/	.
8AA-J 8FF#'<\	(>16e-L 16E-</	.
.	16c/JJ)	.
=129	=129	=129
8GGL 8CC'<\	8e-L 8E-<'>/	.
8AA- 8FF#'<\	(>16e-L 16E-</	.
.	16c/J)	.
8GG 8CC'<\	8e- 8E-<'>/	.
8AA-J 8FF#'<\	(>16e-L 16E-</	.
.	16c/JJ)	.
=130	=130	=130
!	!	!LO:HP:a:t=cresc. ed accel. molto
16GGLL 16CC\	16ryy	<
16ryy	16C</LL	.
16AA-JJ 16FF#X\	16ryy	.
16ryy	16E-</JJ	.
16GGLL 16CC\	16ryy	.
16ryy	16C</LL	.
16AA-JJ 16FF#\	16ryy	.
16ryy	16E-</JJ	.
=131	=131	=131
16GGLL 16CC\	16ryy	.
!	!LO:TX:t=P:problem:mixed beam	!
16ryy	16C</LL	.
16A-JJ 16F#X\	16ryy	.
16ryy	16e-\JJ	.
!	!LO:TX:t=P:problem:mixed beam	!
4ryy	16G<LL 16C</	.
.	16c\	.
.	16A-< 16F</	.
.	16e-\JJ	.
=132	=132	=132
!LO:TX:t=P:problem:mixed beam	!	!
16GLL 16C/	16ryy	.
16ryy	16c/LL	.
16a->JJ 16f#X>\	16ryy	.
16ryy	16ee-/JJ	.
16g>LL 16c>\	16ryy	<
16ryy	16cc/LL	.
16a->JJ 16f#>\	16ryy	.
16ryy	16ee-/JJ	.
=133	=133	=133
16g>LL 16c>\	16ryy	.
16ryy	16cc/LL	.
*8va	*8va	*
16aa->JJ 16ff#X>\	16ryy	.
16ryy	16eee-/JJ	.
16gg>LL 16cc>\	16ryy	.
16ryy	16ccc/LL	.
16aa->JJ 16ff#>\	16ryy	.
16ryy	16eee-/JJ	[[
!!LO:LB:g=original
=134	=134	=134
16gg>LL 16cc>\	16ryy	.
16ryy	16ccc/LL	.
16aaa->JJ 16fff#X>\	16ryy	ff
16ryy	16eeee-/JJ	.
16ggg>LL 16ccc>\	16ryy	.
16ryy	16cccc/LL	.
16aaa->JJ 16fff#>\	16ryy	.
16ryy	16eeee-/JJ	.
=135	=135	=135
16ggg>LL 16ccc>\	16ryy	>
16ryy	16cccc/LL	.
16aaa->JJ 16fff#X>\	16ryy	.
16ryy	16eeee-/JJ	.
16ggg>LL 16ccc>\	16ryy	.
16ryy	16cccc/LL	.
16aaa->JJ 16fff#>\	16ryy	]]
16ryy	16eeee-/JJ	.
=136	=136	=136
16ggg>LL 16bbn>\	16ryy	p
!	!	!LO:HP:t=poco a poco cresc.
16ryy	16bbbn/LL	<
16fff#X>\	16ryy	.
16ryy	16eeee-/	.
16fff#> 16bb-X>\	16ryy	.
16ryy	16bbb-X/	.
!LO:TX:t=P:problem:pojedyncza belka	!	!
16fffnX>\J	16ryy	.
!	!LO:TX:t=P:problem:pojedyncza belka	!
16ryy	16ddddn/J	.
=137	=137	=137
16fff> 16aan>\L	16ryy	.
16ryy	16aaan/L	.
16eeen>\	16ryy	.
16ryy	16cccc#X/	.
16eee> 16aa-X>\	16ryy	.
16ryy	16aaa-X/	.
!LO:TX:t=P:problem:pojedyncza belka	!	!
16eee-X>\J	16ryy	.
!	!LO:TX:t=P:problem:pojedyncza belka	!
16ryy	16ccccn/J	.
=138	=138	=138
16eee-> 16gg>\L	16ryy	.
16ryy	16ggg/L	.
16dddn>\	16ryy	.
16ryy	16bbbn 16bbn/	.
16ddd> 16gg-X>\	16ryy	.
16ryy	16ggg-X/	.
!LO:TX:t=P:problem:pojedyncza belka	!	!
16ddd-X>\J	16ryy	.
!	!LO:TX:t=P:problem:pojedyncza belka	!
16ryy	16bbb-XJ 16bb-X/	.
!!LO:LB:g=original
=139	=139	=139
16ddd-X> 16ff>\L	16ryy	.
16ryy	16fff/L	.
16ccc>\	16ryy	.
16ryy	16aaan 16aan/	.
16ccc> 16een>\	16ryy	.
16ryy	16eeen/	.
!LO:TX:t=P:problem:pojedyncza belka	!	!
16bbn>\J	16ryy	.
!	!LO:TX:t=P:problem:pojedyncza belka	!
16ryy	16aaa-X 16aa-X/J	.
=140	=140	=140
16bbn> 16ee-X>\L	16ryy	.
16ryy	16eee-X/L	.
16bb-X>\	16ryy	.
16ryy	16ggg 16gg/	.
16bb-> 16ddn>\	16ryy	.
16ryy	16dddn/	.
!LO:TX:t=P:problem:pojedyncza belka	!	!
16aan>\J	16ryy	.
!	!LO:TX:t=P:problem:pojedyncza belka	!
16ryy	16fff#X 16ff#X/J	.
=141	=141	=141
16aan> 16dd-X>\L	16ryy	.
16ryy	16ddd-X/L	.
16aa-X>\	16ryy	.
16ryy	16fffn 16ffn/	.
16aa-> 16cc>\	16ryy	.
16ryy	16ccc/	.
!LO:TX:t=P:problem:pojedyncza belka	!	!
16gg>\J	16ryy	.
!	!LO:TX:t=P:problem:pojedyncza belka	!
16ryy	16eeen 16een/J	.
=142	=142	=142
16gg> 16cc-X>\L	16ryy	.
16ryy	16ccc-X/L	.
16gg-X>\	16ryy	.
16ryy	16eee-X 16ee-X/	.
16gg-> 16b->\	16ryy	.
16ryy	16bb-/	.
16ff>\JJ	16ryy	.
*X8va	*	*
16ryy	16dddnJJ 16ddn/	.
*	*X8va	*
=143	=143	=143
16ffn>LL 16an>\	16ryy	.
16ryy	16aan/LL	.
16een>\	16ryy	.
16ryy	16ccc#X 16cc#X/	.
16ff> 16a>\	16ryy	.
16ryy	16aa/	.
16ee>\JJ	16ryy	.
16ryy	16ccc#JJ 16cc#/	.
!!LO:LB:g=original
=144	=144	=144
!	!	!LO:DY:rj
8FL 8AAn^>/	8cc#XL 8c#X^>/	ff
8En 8AA/	(16cc#L 16c#/	.
.	16an/J)	.
8F 8AA/	8cc# 8c#/	.
8EJ 8AA/	(16cc#L 16c#/	.
.	16a/JJ)	.
=145	=145	=145
16ff>LL 16an>\	16ryy	.
16ryy	16aan/LL	.
16een> 16a>\	16ryy	.
16ryy	16ccc#X 16cc#X/	.
16ff> 16a>\	16ryy	.
16ryy	16aa/	.
16ee>JJ 16a>\	16ryy	.
16ryy	16ccc#JJ 16cc#/	.
=146	=146	=146
8FL 8AAn^>/	8cc#XL 8c#X^>/	.
8En 8AA/	(16cc#L 16c#/	.
.	16an/J)	.
8F 8AA/	8cc# 8c#/	.
8EJ 8AA/	(16cc#L 16c#/	.
.	16a/JJ)	.
=147	=147	=147
16ff>LL 16an>\	16ryy	.
16ryy	16aan/LL	.
16een> 16a>\	16ryy	.
16ryy	16ccc#X 16cc#X/	.
16ff> 16a>\	16ryy	.
16ryy	16aa/	.
16ee>JJ 16a>\	16ryy	.
16ryy	16ccc#JJ 16cc#/	.
=148	=148	=148
!	!	!LO:HP:a
16f>LL 16An\	16ryy	<
16ryy	16an/LL	.
!LO:TX:t=P:problem:pojedyncza belka	!	!
16en> 16A\J	16ryy	.
!	!LO:TX:t=P:problem:pojedyncza belka	!
16ryy	16cc#X 16c#X/J	.
16f> 16A\L	16ryy	.
16ryy	16a/L	.
16e>JJ 16A\	16ryy	.
16ryy	16cc#JJ 16c#/	.
=149	=149	=149
16FLL 16AAn\	16ryy	.
16ryy	16An</LL	.
!LO:TX:t=P:problem:pojedyncza belka	!	!
16En 16AA\J	16ryy	.
!	!LO:TX:t=P:problem:pojedyncza belka	!
16ryy	16c#X< 16C#X</J	.
16F 16AA\L	16ryy	.
16ryy	16A</L	.
16EJJ 16AA\	16ryy	.
16ryy	16c#<JJ 16C#</	[[
!!LO:LB:g=original
=150	=150	=150
8FFL 8FFF/	16r	ff
.	16an/LL	.
8EEn 8EEEn/	16r	.
.	16cc#X 16c#X/	.
8FF 8FFF/	16r	.
.	16a/	.
8EEJ 8EEE/	16r	.
.	16cc#JJ 16c#/	.
=151||	=151||	=151||
*k[b-e-]	*k[b-e-]	*
8DD 8DDD/	8ddL 8d^>/	.
!LO:TX:b:i:t=marc.	!	!
8DL 8DD/	16ddL 16d/	.
.	16b-/J	<
8BB- 8BBB-/	8ee- 8e-^>/	.
8DJ 8DD/	16ee-L 16e-/	.
.	16dd/JJ	.
=152	=152	=152
8C#XL 8CC#X^/	8eenL 8en^\	.
8AA 8AAA/	16eeL 16e\	.
.	16dd\J	.
8Cn 8CCn^/	8ffn 8fn^\	.
16BB-L 16BBB-/	16ffL 16f\	.
16AAJJ 16AAA/	16dd\JJ	.
=153	=153	=153
8BB-L 8BBB-/	8ff#XL 8f#X^\	.
8AA 8AAA/	16ff#L 16f#\	.
.	16dd\J	.
8EE- 8EEE-/	8gg 8g^\	.
8GGJ 8GGG/	16ggL 16g\	[
.	16ee-\JJ	.
=154	=154	=154
*^	*	*
!	!	!	!LO:DY:a=2
8GG 8DD 8GGG/	8ryy	8r	sf
.	.	(16qqd/LL	.
.	.	16qqe-/JJ	.
!	!	!	!LO:DY:t=%s subito
4G^/	8G\L	(8d/L)	p
.	8D 8GG\	8B-/)	.
[<8F#X^/L	8F#\J	8d/J	.
=155	=155	=155	=155
8F#/J]	8DL 8GG\	8dL 8c#X/	<
4Fn^/	8F\	8A/	.
.	8D 8GG\	8d 8cn/	.
[<8En^/L	8E\J	16B-/L	.
.	.	16A/JJ	.
=156	=156	=156	=156
!	!	!LO:TX:t=P:problem:mixed beam	!
8E/J]	8D 8GG\	8B-/L	.
*	*	*clefF4	*
.	.	(16qqA/LL	[
.	.	16qqB-/JJ	.
8E-X/L	4.ryy	(8A\)	.
8D/	.	8E-\)	.
8C#X/J	.	8G\J	.
*v	*v	*	*
!!LO:LB:g=original
=157	=157	=157
8r	4D\	.
!LO:TX:b:i:t=ben marcato	!	!LO:HP:t=cresc. molto
8Cn/L	.	<
*	*clefG2	*
8BBn/	8cc#XL 8g 8c#X/	.
8BB-X/J	8ddJ 8g 8d/	.
*	*clefF4	*
=158	=158	=158
8AA/L	4D\	.
8AA-X/	.	.
*	*clefG2	*
8GG/	8cc#XL 8c#X/	.
8FF#X/J	8ddJ 8ccn 8d/	.
=159	=159	=159
!LO:TX:t=P:problem:mixed beam	!	!
8DDL 8GGG/	8r	ff
8d\J	8dddL 8bb- 8gg 8dd^\	.
8r	8bb- 8b-\	.
8GL 8GG^>/	8dddJ 8bb- 8dd\	.
=160	=160	=160
8E- 8EE-/	8ccc#XL 8aa 8cc#X\	.
8GJ 8GG/	8aa 8a\	.
8F#XL 8FF#X/	8cccn 8aa 8ccn^\	.
8DJ 8DD/	16bb-L 16b-\	.
.	16aaJJ 16a\	.
=161	=161	=161
8FnL 8FFn^/	8bb-L 8b-\	.
16E-L 16EE-/	8aa 8gg 8a\	.
16DJJ 16DD/	.	.
!LO:TUP:b	!	!
12E-L 12EE-/	8ee- 8e-\	.
12D 12DD/	.	.
.	8ggJ 8g\	.
12E-J 12EE-/	.	.
=162	=162	=162
*Xtuplet	*	*
12DL 12DD/	8bb-L 8gg 8b-^\	>
12E- 12EE-/	.	.
.	8aa 8a\	.
12DJ 12DD/	.	.
12E-L 12EE-/	8ee- 8e-\	.
12D 12DD/	.	.
.	8ggJ 8ee- 8g\	]]
12E-J 12EE-/	.	.
=163	=163	=163
*	*^	*
!	!	!	!LO:DY:t=meno %s
16DD\LL	4aa-X 4ff/	(>8cccL 8cc\	f
(16D\	.	.	.
16F\	.	8bbnJ 8bn\)	.
16A-X\JJ	.	.	.
16Bn\LL	(8f/L	4ryy	.
16A-\	.	.	.
16F\	8a-X/J)	.	.
16D\JJ)	.	.	.
!!LO:PB:g=original
=164	=164	=164	=164
16DD\LL	4aa-X 4ff/	(>8cccL 8cc\	.
(16D\	.	.	.
16F\	.	8bbnJ 8bn\)	.
16A-X\JJ	.	.	.
16Bn\LL	(8f/L	4ryy	.
16A-\	.	.	.
16F\	8a-X/J)	.	.
16D\JJ)	.	.	.
=165	=165	=165	=165
16DD\LL	4bb-X 4gg/	(>8dddL 8dd\	<
(16D\	.	.	.
16En\	.	8ccc#XJ 8cc#X\)	.
16G\JJ	.	.	.
16c#X\LL	(8g/L	4ryy	.
16G\	.	.	.
16E\	8b-/J)	.	.
16D\JJ)	.	.	.
=166	=166	=166	=166
16DD\LL	4bb- 4gg/	(>8dddL 8dd\	.
(16D\	.	.	.
16En\	.	8ccc#XJ 8cc#X\)	.
16G\JJ	.	.	.
16c#X\LL	(8g/L	4ryy	.
16F\	.	.	.
16E\	8b-/J)	.	.
16D\JJ)	.	.	.
*	*v	*v	*
=167	=167	=167
8DL 8DD^\	8eee-XL 8cccn 8ff#X 8ee-X^\	.
8f#XJ 8cn 8A^\	8dddJ 8ccc 8ff# 8dd^\	.
16B-\LL	16ryy	.
16ryy	16B-</LL	.
16d>\JJ	16ryy	.
16ryy	16d/JJ	.
=168	=168	=168
16c#X\LL	16ryy	.
16ryy	16c#y</LL	.
16A\JJ	16ryy	.
16ryy	16A</JJ	.
16cn\LL	16ryy	.
16ryy	16cny</LL	.
16B-\JJ	16ryy	>
16ryy	16B-</JJ	.
=169	=169	=169
16A\LL	16ryy	.
16ryy	16A</LL	.
!LO:TX:t=P:problem:pojedyncza belka	!	!
16G\J	16ryy	.
!	!LO:TX:t=P:problem:pojedyncza belka	!
16ryy	16G</J	.
16E-\L	16ryy	.
16ryy	16E-</L	.
16G\JJ	16ryy	.
16ryy	16G</JJ	]]
!!LO:LB:g=original
=170	=170	=170
16A\LL	16ryy	.
16ryy	16A</LL	.
!LO:TX:t=P:problem:pojedyncza belka	!	!
16G\J	16ryy	.
!	!LO:TX:t=P:problem:pojedyncza belka	!
16ryy	16G</J	.
16E-\L	16ryy	.
16ryy	16E-</L	.
16G\JJ	16ryy	.
16ryy	16G</JJ	.
=171	=171	=171
16A\LL	16ryy	.
16ryy	16aLL 16A</	<
16G\JJ	16ryy	.
16ryy	16gJJ 16G</	.
16E-\LL	16ryy	.
16ryy	16e-LL 16E-</	.
16G\JJ	16ryy	.
16ryy	16gJJ 16G</	.
=172	=172	=172
16B-LL 16BB-\	16ryy	.
16ryy	16b-LL 16B-</	.
16AJJ 16AA\	16ryy	.
16ryy	16aJJ 16A</	.
16E-LL 16EE-\	16ryy	.
16ryy	16e-LL 16E-</	.
16GJJ 16GG\	16ryy	.
16ryy	16gJJ 16G</	.
=173	=173	=173
16B-LL 16BB-\	16ryy	.
16ryy	16b-LL 16B-</	.
16AJJ 16AA\	16ryy	.
16ryy	16aJJ 16A</	.
16E-LL 16EE-\	16ryy	.
16ryy	16e-LL 16E-</	.
16GJJ 16GG\	16ryy	.
16ryy	16gJJ 16G</	[
=174	=174	=174
16GGLL 16GGG\	16ryy	.
!!LO:TX:a:i:t=strepitoso
16ryy	16G#X<LL 16GG#X</	.
!LO:TX:t=P:problem:pojedyncza belka	!	!
16AA 16AAA\J	16ryy	.
!	!LO:TX:t=P:problem:pojedyncza belka	!
16ryy	16B-< 16BB-</J	.
16BBn 16BBBn\L	16ryy	.
16ryy	16c< 16C</L	.
16C#XJJ 16CC#X\	16ryy	.
16ryy	16d<JJ 16D</	.
=175	=175	=175
16E-LL 16EE-\	16ryy	<
16ryy	16enLL 16En</	.
!LO:TX:t=P:problem:pojedyncza belka	!	!
16F 16FF\J	16ryy	.
!	!LO:TX:t=P:problem:pojedyncza belka	!
16ryy	16f#X 16F#X</J	.
16Gn 16GGn\L	16ryy	.
16ryy	16g#X 16G#X</L	.
16AJJ 16AA\	16ryy	.
16ryy	16b-JJ 16B-</	[[
!!LO:LB:g=original
=176	=176	=176
16GnLL 16GGn\	16ryy	.
16ryy	16g#XLL 16G#X</	.
!LO:TX:t=P:problem:pojedyncza belka	!	!
16A 16AA\J	16ryy	<
!	!LO:TX:t=P:problem:pojedyncza belka	!
16ryy	16b- 16B-</J	.
16Bn 16BBn\L	16ryy	.
16ryy	16cc 16c/L	.
16c#XJJ 16C#X\	16ryy	.
16ryy	16ddJJ 16d/	.
=177	=177	=177
16e->LL 16E-\	16ryy	.
16ryy	16eenLL 16en/	.
!LO:TX:t=P:problem:pojedyncza belka	!	!
16f> 16F\J	16ryy	.
!	!LO:TX:t=P:problem:pojedyncza belka	!
16ryy	16ff#X 16f#X/J	.
16gn> 16Gn\L	16ryy	.
16ryy	16gg#X 16g#X/L	.
16a>JJ 16A\	16ryy	.
16ryy	16bb-JJ 16b-/	[
=178	=178	=178
!LO:TX:t=P:problem:mixed beam	!	!LO:DY:rj
8GGL 8GGG^/	8r	fff
*	*8va	*
!LO:TX:b:i:t=furioso	!	!
8gJ 8e- 8B- 8G\	8gggL 8eee- 8bb- 8gg^>/	.
16r	8eee- 8ee-/	.
!	!	!LO:HP:b=2
8a-XL 8A-X^<\	.	<
.	8gggJ 8eee- 8gg/	.
[16anJk [16An^<\	.	.
=179	=179	=179
16a]KL 16A\]	8fff#XL 8ddd 8ff#X/	.
8b- 8B-^<\	.	.
.	8ddd 8dd/	.
8bnJ 8Bn^<\	.	[
.	8fffn 8ddd 8ffn^>/	.
16r	.	.
8r	16eee-L 16ee-/	.
.	16dddJJ 16dd/	.
=180	=180	=180
!LO:TX:t=P:problem:mixed beam	!	!
8GGL 8GGG^/	8r	.
8gJ 8e- 8B- 8G\	8gggL 8eee- 8bb- 8gg^>/	.
16r	8eee- 8ee-/	.
!	!	!LO:HP:b=2
8a-XL 8A-X^<\	.	<
.	8gggJ 8eee- 8gg/	.
[16anJk [16An^<\	.	.
=181	=181	=181
16a]KL 16A\]	8fff#XL 8ddd 8ff#X/	.
8b- 8B-^<\	.	.
.	8ddd 8dd/	.
8bnJ 8Bn^<\	.	[
.	8fffn 8ddd 8ffn/	.
16r	.	.
8r	16eee-L 16ee-/	.
.	16dddJJ 16dd/	.
*	*X8va	*
=182	=182	=182
8GL 8GG^/	8r	.
8G 8GG/	16gLL 16G/	.
.	16e-/J	.
8E- 8EE-/	8a-X 8A-X^>/	.
8GJ 8GG/	16a-L 16A-/	.
.	16g/JJ	.
!!LO:LB:g=original
=183	=183	=183
!	!	!LO:HP:a
8F#XL 8FF#X\	8anL 8An^>/	<
8D 8DD\	16aL 16A/	.
.	16g/J	.
8Fn 8FFn^\	8b- 8B-^>/	.
16E-L 16EE-\	16b-L 16B-/	.
16DJJ 16DD\	16g/JJ	.
=184	=184	=184
8E-L 8EE-/	8bnL 8Bn^>/	.
(8D 8DD/	16bL 16B/	.
.	16g/J	.
8AA-X 8AAA-X/)	8cc 8c^>/	.
8CJ 8CC/	16ccL 16c/	.
.	16a-X/JJ	[
=185	=185	=185
8AA-XL 8AAA-X/	8ccL 8c^>/	.
8C 8CC/	16ccL 16c/	.
.	16a-X/J	.
8AA- 8AAA-/	8cc 8c^>/	.
8CJ 8CC/	16ccL 16c/	.
.	16a-/JJ	.
=186	=186	=186
!	!	!LO:DY:rj
8DDL 8DDD^/	8r	fff
8D 8DD/	16ddLL 16d^>/	.
.	16b-/J	.
8BB- 8BBB-/	8ee- 8e-^>/	.
8DJ 8DD/	16ee-L 16e-/	.
.	16dd/JJ	.
=187	=187	=187
8C#XL 8CC#X/	8eenL 8en^>/	.
8AA 8AAA/	16eeL 16e/	.
.	16dd/J	.
8Cn 8CCn^/	8ff 8f^>/	.
16BB-L 16BBB-/	16ffL 16f/	.
16AAJJ 16AAA/	16dd/JJ	.
=188	=188	=188
8BB-L 8BBB-/	8ff#XL 8f#X^\	.
8AA 8AAA/	16ff#L 16f#\	<
.	16dd\J	.
8EE- 8EEE-/	8gg 8g\	.
8GGJ 8GGG/	16ggL 16g\	.
.	16ee-\JJ	.
=189	=189	=189
8EE-L 8EEE-/	8ggL 8g\	.
8GG 8GGG/	16ggL 16g\	.
.	16ee-\J	.
8EE- 8EEE-/	8gg 8g\	.
8GGJ 8GGG/	16ggL 16g\	.
.	16ee-\JJ	[
=190	=190	=190
!	!LO:TX:b:i:t=con Ped.	!
4GG 4DD 4GGG/	8r	.
*	*8va	*
.	8dddd 8bbb- 8ggg 8ddd\	.
*8va	*	*
16bb->\LL	16ryy	.
16ryy	16bbb-LL 16bb-/	.
16ddd>\JJ	16ryy	.
16ryy	16ddddJJ 16ddd/	.
!!LO:LB:g=original
=191	=191	=191
16ccc#X>\LL	16ryy	.
16ryy	16cccc#XLL 16ccc#X/	.
16aa>\JJ	16ryy	.
16ryy	16aaaJJ 16aa/	.
16cccn>\LL	16ryy	.
16ryy	16ccccnLL 16cccny/	.
16bb->\JJ	16ryy	.
16ryy	16bbb-JJ 16bb-/	.
=192	=192	=192
16aa>\LL	16ryy	.
16ryy	16aaaLL 16aa/	.
16gg>\JJ	16ryy	.
16ryy	16gggJJ 16gg/	.
16ee->\LL	16ryy	.
16ryy	16eee-LL 16ee-/	.
16gg>\JJ	16ryy	.
*X8va	*	*
16ryy	16gggJJ 16gg/	.
*	*X8va	*
=193	=193	=193
16ee->\LL	16ryy	.
16ryy	16eee-LL 16ee-/	.
16dd>JJ 16d>\	16ryy	.
16ryy	16dddJJ 16dd/	.
16b->LL 16B->\	16ryy	.
16ryy	16bb-LL 16b-/	.
16dd>JJ 16d>\	16ryy	.
16ryy	16dddJJ 16dd/	.
=194	=194	=194
16b->LL 16B-\	16ryy	.
16ryy	16bb-LL 16b-/	.
16a>JJ 16A\	16ryy	.
16ryy	16aaJJ 16a/	.
16e->LL 16E-\	16ryy	.
16ryy	16ee-LL 16e-/	.
16g>JJ 16G\	16ryy	.
16ryy	16ggJJ 16g/	.
=195	=195	=195
16e->LL 16E-\	16ryy	.
16ryy	16ee-LL 16e-/	.
16d>JJ 16D\	16ryy	.
16ryy	16ddJJ 16d/	.
16B-LL 16BB-\	16ryy	.
16ryy	16b-LL 16B-</	.
16d>JJ 16D\	16ryy	.
16ryy	16ddJJ 16d/	.
=196	=196	=196
16B-LL 16BB-\	16ryy	.
16ryy	16b-LL 16B-</	.
16AJJ 16AA\	16ryy	.
16ryy	16aJJ 16A</	.
16E-LL 16EE-\	16ryy	.
16ryy	16e-LL 16E-</	.
16GJJ 16GG\	16ryy	.
16ryy	16gJJ 16G</	.
!!LO:LB:g=original
=197	=197	=197
16E-LL 16EE-\	16ryy	.
16ryy	16e-LL 16E-</	.
16DJJ 16DD\	16ryy	.
16ryy	16dJJ 16D</	.
!	!LO:TX:t=P:problem:mixed beam	!
4ryy	16BB-<LL 16BBB-</	.
.	16B->\	.
.	16D< 16DD</	.
.	16d>\JJ	.
=198	=198	=198
!	!	!LO:DY:rj
4GG 4GGG~~/	8r	fff
.	8dddL 8bb- 8gg 8dd^\	.
8r	8bb- 8b-\	.
8gL 8G\	8dddJ 8bb- 8dd\	.
=199	=199	=199
8e- 8E-^<\	8r	.
8gJ 8G\	8ddL 8b- 8d/	.
8r	8b- 8B-/	.
8GL 8GG\	8ddJ 8b- 8d/	.
=200	=200	=200
8E- 8EE-^<\	8r	.
8GJ 8GG\	8dL 8B-< 8D</	.
!	!LO:N:vis=4	!
8r	8B-< 8BB-</	.
8GG 8GGG\	8dJ 8D</	.
=201	=201	=201
4EE- 4EEE-^>/	2r	.
4DD 4DDD^>/	.	.
=202	=202	=202
!	!	!LO:HP:a
8DDL 8GGG^\	8G<L 8D< 8GG<^/	<
16r	16G<Jk 16D< 16GG</	.
16GGJk 16DD 16GGG\	16rF<	.
8.r	8gL 8d 8G</	.
.	16gJk 16d 16G</	.
16G 16D 16GG\	16r	.
=203	=203	=203
8.r	8ggL 8dd 8g/	.
.	16ggJk 16dd 16g/	[
16g> 16d> 16G\	16r	.
*	*8va	*
8.r	8gggL 8ddd 8gg/	.
.	16gggJk 16ddd 16gg/	.
*8va	*	*
16gg> 16dd> 16g>\	16r	.
*X8va	*	*
=204	=204	=204
2r	4gggg 4dddd 4ggg\	.
*	*X8va	*
.	4r	.
=205	=205	=205
!!LO:TX:a:i:t=rit.
2g 2d 2B- 2G\	2bb- 2gg 2dd 2b-\	.
=206	=206	=206
(8qB- 8qD 8qGG/	(>8qg 8qd 8qG/	.
!	!LO:S:s=1:note:problem=note-level slur	!
2GG 2GGG/)	2ggg) 2gg\	.
==	==	==
*-	*-	*-
!!!system-decoration: {(g1)}
!!!RDF**kern: i = editorial accidental
!!!RDF**kern: > = above
!!!RDF**kern: < = below
!!!RDF**kern: N = linked
!!!RDF**dynam: > = "dim.", fontstyle= "italic"
!!!ENC: Filip Voros
!!!EED: Katarzyna Serwa
!!!END: 2023-10-21
!!!EEV: 2023-11-20
